X: 1639
T: Whiskey You're the Devil
%S: s:3 b:16(5+4+4)
B: O'Neill's 1850 #1639
O: F.O'Neill
Z: Nick Terhorst, nickte@microsoft.com
M: C|
L: 1/8
K: A
E2 | A>cB>c A>FF>E | A>ce>a f2 (3(efg) | a>gf>e f>ec>A |[1,3 B>cB>A F2 :|[2,4 B2A2 A2 :|
|: B>c | e>ag>a f>ec>e | f>ag>a f2 (3(efg) | a>gf>e f>ec>A | B>cB>A F2 ||
|   E2 | A>cB>c A>FF>E | A>ce>a f2 (3(efg) | a>gf>e f>ec>A | B2A2   A2 :|
